icon_installer/data/icons/scalable/actions/show-folder-remote-symbolic.svg

<?xml version="1.0" encoding="UTF-8"?>
<svg height="16px" viewBox="0 0 16 16" width="16px" xmlns="http://www.w3.org/2000/svg">
    <path d="m -104.919373 690.981873 h 1.820313 c 1.15625 0 2.089844 0.9375 2.089844 2.089843 v 2.808594 c 0 1.15625 -0.933594 2.089844 -2.089844 2.089844 h -1.820313 c -1.152343 0 -2.089843 -0.933594 -2.089843 -2.089844 v -2.808594 c 0 -1.152343 0.9375 -2.089843 2.089843 -2.089843 z m 0 0" fill="none" stroke="#2e3436" stroke-linecap="round" stroke-width="2.00001" transform="matrix(-1 0 0 1 -79.985779 -687.985779)"/>
    <g fill="#2e3436">
        <path d="m 7.996094 12 c -0.703125 0 -1.355469 0.371094 -1.714844 0.972656 h -3.285156 c -0.554688 0 -1 0.449219 -1 1 c 0 0.550782 0.445312 1 1 1 h 3.246094 c 0.351562 0.640625 1.023437 1.035156 1.753906 1.039063 c 0.726562 -0.003907 1.398437 -0.398438 1.75 -1.039063 h 3.261718 c 0.550782 0 1 -0.449218 1 -1 c 0 -0.550781 -0.449218 -1 -1 -1 h -3.292968 c -0.363282 -0.601562 -1.015625 -0.972656 -1.71875 -0.972656 z m 0 1 c 0.554687 0 1.003906 0.449219 1.003906 1.007812 c 0 0.554688 -0.449219 1.003907 -1.003906 1.003907 c -0.558594 0 -1.007813 -0.449219 -1.007813 -1.003907 c 0 -0.558593 0.449219 -1.007812 1.007813 -1.007812 z m 0 0"/>
        <path d="m 6.992188 10 h 2.007812 v 3 h -2.007812 z m 0 0"/>
        <path d="m 4 0 c -1.644531 0 -3 1.355469 -3 3 v 5.015625 c 0 1.644531 1.355469 3 3 3 h 8 c 1.644531 0 3 -1.355469 3 -3 v -3.015625 c 0 -1.644531 -1.355469 -3 -3 -3 h -2.585938 l -1.707031 -1.707031 c -0.1875 -0.1875 -0.441406 -0.292969 -0.707031 -0.292969 z m 0 2 h 2.585938 l 1 1 h -4.585938 c 0 -0.5625 0.4375 -1 1 -1 z m -1 2 h 9 c 0.5625 0 1 0.4375 1 1 v 3.015625 c 0 0.5625 -0.4375 1 -1 1 h -8 c -0.5625 0 -1 -0.4375 -1 -1 z m 0 0"/>
    </g>
</svg>

<svg xmlns="http://www.w3.org/2000/svg" width="16" height="16"><path fill="none" stroke="#2e3436" stroke-linecap="round" stroke-width="2" d="M24.934 2.996h-1.82a2.09 2.09 0 0 0-2.09 2.09v2.809c0 1.156.933 2.09 2.09 2.09h1.82a2.09 2.09 0 0 0 2.09-2.09v-2.81a2.093 2.093 0 0 0-2.09-2.089zm0 0"/><g fill="#2e3436"><path d="M7.996 12a2 2 0 0 0-1.715.973H2.996a1 1 0 1 0 0 2h3.246a2.009 2.009 0 0 0 1.754 1.039 2.007 2.007 0 0 0 1.75-1.04h3.262c.55 0 1-.449 1-1 0-.55-.45-1-1-1H9.715A2.011 2.011 0 0 0 7.996 12zm0 1C8.551 13 9 13.45 9 14.008c0 .555-.45 1.004-1.004 1.004a1.005 1.005 0 1 1 0-2.012zm0 0"/><path d="M6.992 10H9v3H6.992zm0 0"/><path d="M4 0C2.355 0 1 1.355 1 3v5.016c0 1.644 1.355 3 3 3h8c1.645 0 3-1.356 3-3V5c0-1.645-1.355-3-3-3H9.414L7.707.293A1 1 0 0 0 7 0zm0 2h2.586l1 1H3c0-.563.438-1 1-1zM3 4h9c.563 0 1 .438 1 1v3.016c0 .562-.438 1-1 1H4c-.563 0-1-.438-1-1zm0 0"/></g></svg>
